X:1
T:Trip to Pakistan, The
R:reel
C:Niall Kenny
S:J\"orgen Fischer
Z:id:hn-reel-758
M:C|
K:Em
|:EGBE ~G3B|~A3G AGFG|EGBE ~G3B|AGFG E4:|
|:EGBG c3A|BABd AGFG|EGBG c3A|BAGB A4:|
|:FGBF GBFG|EFGE FGFE|DFAD FADF|AGFG E4:|

